src/topics/icons/fluxxor.svg

<svg height="322" preserveAspectRatio="xMidYMid" viewBox="0 0 256 322" width="256" xmlns="http://www.w3.org/2000/svg"><path d="m252.464 309.711c0 4.974-3.521 8.582-8.479 8.582h-231.155c-4.958 0-9.294-3.608-9.294-8.582v-296.499c0-4.975 4.336-8.908 9.294-8.908h231.155c4.959 0 8.479 3.933 8.479 8.908z" fill="#fff"/><path d="m243.985 321.829h-231.155c-7.074 0-12.83-5.436-12.83-12.119v-296.498c0-6.862 5.756-12.444 12.83-12.444h231.155c6.849 0 12.015 5.349 12.015 12.444v296.498c0 6.909-5.166 12.119-12.015 12.119zm-231.155-313.989c-3.121 0-5.758 2.46-5.758 5.372v296.498c0 3.159 2.928 5.047 5.758 5.047h231.155c3.003 0 4.943-1.981 4.943-5.047v-296.498c0-3.163-2.032-5.372-4.943-5.372z"/><path d="m203.439 60.164c-15.099 0-27.382 12.284-27.382 27.383 0 6.277 2.128 12.064 5.694 16.688l-46.019 46.019c-2.559-1.65-5.602-2.613-8.866-2.613-3.246 0-6.272.951-8.821 2.584l-45.99-45.99c3.566-4.624 5.695-10.411 5.695-16.688 0-15.099-12.284-27.383-27.383-27.383s-27.383 12.284-27.383 27.383 12.284 27.383 27.383 27.383c6.277 0 12.064-2.128 16.688-5.694l45.99 45.99c-1.633 2.549-2.584 5.575-2.584 8.821 0 7.983 5.732 14.649 13.296 16.106v65.39c-13.622 1.566-24.237 13.162-24.237 27.197 0 15.099 12.284 27.383 27.383 27.383s27.383-12.284 27.383-27.383c0-13.766-10.212-25.187-23.457-27.098v-65.677c7.137-1.777 12.442-8.238 12.442-15.918 0-3.227-.94-6.236-2.555-8.776l46.035-46.036c4.624 3.567 10.411 5.695 16.688 5.695 15.1 0 27.383-12.284 27.383-27.383s-12.283-27.383-27.383-27.383zm-153.072 47.694c-11.2 0-20.311-9.111-20.311-20.311 0-11.199 9.111-20.311 20.311-20.311 11.199 0 20.311 9.112 20.311 20.311 0 4.325-1.363 8.336-3.677 11.634l-8.064-8.065c.514-1.177.804-2.475.804-3.84 0-5.309-4.32-9.629-9.63-9.629-5.309 0-9.628 4.32-9.628 9.629 0 5.31 4.319 9.629 9.628 9.629 1.357 0 2.648-.285 3.82-.794l8.07 8.07c-3.298 2.314-7.309 3.677-11.634 3.677zm96.847 164.882c0 11.2-9.111 20.311-20.311 20.311-11.199 0-20.311-9.111-20.311-20.311 0-10.129 7.454-18.55 17.165-20.067v11.344c-3.773 1.305-6.494 4.884-6.494 9.095 0 5.309 4.319 9.629 9.629 9.629 5.309 0 9.629-4.32 9.629-9.629 0-3.906-2.342-7.27-5.692-8.779v-11.52c9.327 1.834 16.385 10.07 16.385 19.927zm56.225-164.882c-4.325 0-8.336-1.363-11.634-3.677l8.07-8.07c1.172.509 2.462.794 3.819.794 5.309 0 9.629-4.319 9.629-9.629 0-5.309-4.32-9.629-9.629-9.629s-9.629 4.32-9.629 9.629c0 1.366.29 2.663.804 3.841l-8.064 8.064c-2.313-3.298-3.677-7.309-3.677-11.634 0-11.199 9.112-20.311 20.311-20.311 11.2 0 20.312 9.112 20.312 20.311 0 11.2-9.112 20.311-20.312 20.311z"/><path d="m138.638 14.166h-7.728l-8.447 9.873-8.446-9.873h-8.909l12.901 15.106-12.863 15.027h8.951l8.367-9.794 8.406 9.794h7.7465 7.7655l8.367-9.794 8.406 9.794h8.933l-12.884-15.026 12.964-15.107h-8.975l-8.445 9.873-8.446-9.873zm-.022461 28.7480127-11.695539-13.6410127 11.715006-13.6515428 11.657994 13.6505428zm-115.835539-17.0130127h17.877v6.662h-17.877zm-3.96-11.734c-.465 0-.907.085-1.313.254-.409.17-.768.413-1.066.72-.296.303-.53.661-.697 1.062-.169.405-.255.841-.255 1.294v26.802h6.622v-23.512h20.869v-6.62zm33.573 23.511v-23.512h-6.621v26.803c0 .467.085.909.254 1.313.169.406.406.763.703 1.059.299.299.656.536 1.06.704.405.169.847.254 1.314.254h24.46v-6.621zm44.99-23.512v23.514h-8.445c-.15 0-.466-.024-.948-.068-.471-.042-1.028-.153-1.658-.328-.625-.173-1.296-.444-1.996-.807-.672-.348-1.3-.837-1.869-1.454-.566-.614-1.042-1.398-1.415-2.328-.372-.926-.561-2.091-.561-3.462v-15.067h-6.621v15.066c0 1.74.212 3.346.63 4.775s1.003 2.72 1.74 3.836c.737 1.115 1.608 2.093 2.592 2.908.974.808 2.031 1.483 3.144 2.008 1.106.522 2.267.914 3.45 1.164 1.177.25 2.359.376 3.512.376h11.736c.453 0 .888-.085 1.293-.254.402-.168.759-.402 1.062-.696.308-.3.55-.658.721-1.068.168-.406.254-.847.254-1.312v-26.803zm105.685 7.239c-.634-1.559-1.529-2.918-2.659-4.04-1.13-1.123-2.484-2.013-4.025-2.646-1.542-.634-3.239-.954-5.045-.954h-7.05c-1.807 0-3.508.32-5.055.953-1.548.634-2.906 1.524-4.035 2.647-1.131 1.122-2.029 2.481-2.67 4.038-.64 1.555-.965 3.266-.965 5.085v5.488c0 1.832.325 3.547.966 5.097s1.538 2.908 2.667 4.035c1.13 1.131 2.49 2.022 4.04 2.649 1.548.626 3.247.943 5.052.943h7.05c1.807 0 3.503-.318 5.043-.943 1.543-.628 2.898-1.519 4.028-2.649 1.129-1.128 2.024-2.486 2.658-4.038.633-1.547.954-3.261.954-5.094v-5.488c0-1.821-.321-3.531-.954-5.083zm-5.667 5.084v5.488c0 .935-.149 1.788-.441 2.536-.289.738-.705 1.376-1.232 1.898-.531.524-1.174.937-1.914 1.226-.748.293-1.594.442-2.516.442h-7.009c-.922 0-1.768-.149-2.516-.442-.739-.289-1.383-.702-1.914-1.226-.528-.522-.942-1.161-1.231-1.898-.293-.749-.442-1.602-.442-2.536v-5.488c0-.934.149-1.788.442-2.536.29-.738.704-1.377 1.23-1.898.531-.524 1.176-.936 1.915-1.226.748-.293 1.594-.442 2.516-.442h7.05c.907 0 1.747.149 2.496.441.74.291 1.379.703 1.901 1.224.522.522.933 1.161 1.223 1.9.293.748.442 1.602.442 2.537zm31.855 8.268c.153-.025.308-.054.464-.085.778-.156 1.558-.413 2.319-.761s1.498-.798 2.19-1.336c.707-.547 1.339-1.215 1.878-1.985.541-.771.975-1.669 1.289-2.668s.473-2.142.473-3.396l-.001-3.324c0-.705-.121-1.468-.36-2.266-.246-.816-.65-1.586-1.204-2.288-.562-.71-1.295-1.305-2.18-1.77-.899-.472-2-.711-3.272-.711h-19.767c-.465 0-.907.085-1.314.254-.408.17-.766.412-1.067.72-.295.303-.529.661-.696 1.064-.169.406-.254.841-.254 1.292v26.802h6.621v-23.512h16.477c.084 0 .176.005.274.015l.078.073c.001.001.042.092.042.366v3.285c0 .586-.091 1.106-.269 1.547-.174.431-.424.803-.744 1.105-.325.311-.723.562-1.182.749-.47.192-1.001.313-1.523.358h-12.484v6.621h4.189l10.855 9.393h10.216z"/><path d="m235.905 311.221h-214.871c-5.359 0-9.719-3.714-9.719-8.28v-245.825c0-4.555 4.36-8.26 9.719-8.26h214.871c4.904 0 8.073 3.242 8.073 8.26v245.825c0 5.03-3.169 8.28-8.073 8.28zm-214.871-260.244c-4.189 0-7.597 2.754-7.597 6.139v245.825c0 3.396 3.408 6.158 7.597 6.158h214.871c3.726 0 5.951-2.302 5.951-6.158v-245.825c0-3.844-2.225-6.139-5.951-6.139z"/></svg>

<?xml version="1.0" encoding="UTF-8" standalone="no"?>
<svg width="256px" height="322px" viewBox="0 0 256 322" version="1.1" xmlns="http://www.w3.org/2000/svg" xmlns:xlink="http://www.w3.org/1999/xlink" preserveAspectRatio="xMidYMid">
	<g>
		<path d="M252.464,309.711 C252.464,314.685 248.943,318.293 243.985,318.293 L12.83,318.293 C7.872,318.293 3.536,314.685 3.536,309.711 L3.536,13.212 C3.536,8.237 7.872,4.304 12.83,4.304 L243.985,4.304 C248.944,4.304 252.464,8.237 252.464,13.212 L252.464,309.711" fill="#FFFFFF"></path>
		<path d="M243.985,321.829 L12.83,321.829 C5.756,321.829 0,316.393 0,309.71 L0,13.212 C0,6.35 5.756,0.768 12.83,0.768 L243.985,0.768 C250.834,0.768 256,6.117 256,13.212 L256,309.71 C256,316.619 250.834,321.829 243.985,321.829 L243.985,321.829 Z M12.83,7.84 C9.709,7.84 7.072,10.3 7.072,13.212 L7.072,309.71 C7.072,312.869 10,314.757 12.83,314.757 L243.985,314.757 C246.988,314.757 248.928,312.776 248.928,309.71 L248.928,13.212 C248.928,10.049 246.896,7.84 243.985,7.84 L12.83,7.84 L12.83,7.84 Z" fill="#000000"></path>
		<path d="M203.439,60.164 C188.34,60.164 176.057,72.448 176.057,87.547 C176.057,93.824 178.185,99.611 181.751,104.235 L135.732,150.254 C133.173,148.604 130.13,147.641 126.866,147.641 C123.62,147.641 120.594,148.592 118.045,150.225 L72.055,104.235 C75.621,99.611 77.75,93.824 77.75,87.547 C77.75,72.448 65.466,60.164 50.367,60.164 C35.268,60.164 22.984,72.448 22.984,87.547 C22.984,102.646 35.268,114.93 50.367,114.93 C56.644,114.93 62.431,112.802 67.055,109.236 L113.045,155.226 C111.412,157.775 110.461,160.801 110.461,164.047 C110.461,172.03 116.193,178.696 123.757,180.153 L123.757,245.543 C110.135,247.109 99.52,258.705 99.52,272.74 C99.52,287.839 111.804,300.123 126.903,300.123 C142.002,300.123 154.286,287.839 154.286,272.74 C154.286,258.974 144.074,247.553 130.829,245.642 L130.829,179.965 C137.966,178.188 143.271,171.727 143.271,164.047 C143.271,160.82 142.331,157.811 140.716,155.271 L186.751,109.235 C191.375,112.802 197.162,114.93 203.439,114.93 C218.539,114.93 230.822,102.646 230.822,87.547 C230.822,72.448 218.539,60.164 203.439,60.164 L203.439,60.164 Z M50.367,107.858 C39.167,107.858 30.056,98.747 30.056,87.547 C30.056,76.348 39.167,67.236 50.367,67.236 C61.566,67.236 70.678,76.348 70.678,87.547 C70.678,91.872 69.315,95.883 67.001,99.181 L58.937,91.116 C59.451,89.939 59.741,88.641 59.741,87.276 C59.741,81.967 55.421,77.647 50.111,77.647 C44.802,77.647 40.483,81.967 40.483,87.276 C40.483,92.586 44.802,96.905 50.111,96.905 C51.468,96.905 52.759,96.62 53.931,96.111 L62.001,104.181 C58.703,106.495 54.692,107.858 50.367,107.858 L50.367,107.858 Z M147.214,272.74 C147.214,283.94 138.103,293.051 126.903,293.051 C115.704,293.051 106.592,283.94 106.592,272.74 C106.592,262.611 114.046,254.19 123.757,252.673 L123.757,264.017 C119.984,265.322 117.263,268.901 117.263,273.112 C117.263,278.421 121.582,282.741 126.892,282.741 C132.201,282.741 136.521,278.421 136.521,273.112 C136.521,269.206 134.179,265.842 130.829,264.333 L130.829,252.813 C140.156,254.647 147.214,262.883 147.214,272.74 L147.214,272.74 Z M203.439,107.858 C199.114,107.858 195.103,106.495 191.805,104.181 L199.875,96.111 C201.047,96.62 202.337,96.905 203.694,96.905 C209.003,96.905 213.323,92.586 213.323,87.276 C213.323,81.967 209.003,77.647 203.694,77.647 C198.385,77.647 194.065,81.967 194.065,87.276 C194.065,88.642 194.355,89.939 194.869,91.117 L186.805,99.181 C184.492,95.883 183.128,91.872 183.128,87.547 C183.128,76.348 192.24,67.236 203.439,67.236 C214.639,67.236 223.751,76.348 223.751,87.547 C223.751,98.747 214.639,107.858 203.439,107.858 L203.439,107.858 Z" fill="#000000"></path>
		<path d="M138.638,14.166 L130.91,14.166 L122.463,24.039 L114.017,14.166 L105.108,14.166 L118.009,29.272 L105.146,44.299 L114.097,44.299 L122.464,34.505 L130.87,44.299 L138.6165,44.299 L146.382,44.299 L154.749,34.505 L163.155,44.299 L172.088,44.299 L159.204,29.273 L172.168,14.166 L163.193,14.166 L154.748,24.039 L146.302,14.166 L138.638,14.166 L138.638,14.166 Z M138.615539,42.9140127 L126.92,29.273 L138.635006,15.6214572 L150.293,29.272 L138.615539,42.9140127 L138.615539,42.9140127 Z M22.78,25.901 L40.657,25.901 L40.657,32.563 L22.78,32.563 L22.78,25.901 Z M18.82,14.167 C18.355,14.167 17.913,14.252 17.507,14.421 C17.098,14.591 16.739,14.834 16.441,15.141 C16.145,15.444 15.911,15.802 15.744,16.203 C15.575,16.608 15.489,17.044 15.489,17.497 L15.489,44.299 L22.111,44.299 L22.111,20.787 L42.98,20.787 L42.98,14.167 L18.82,14.167 Z M52.393,37.678 L52.393,14.166 L45.772,14.166 L45.772,40.969 C45.772,41.436 45.857,41.878 46.026,42.282 C46.195,42.688 46.432,43.045 46.729,43.341 C47.028,43.64 47.385,43.877 47.789,44.045 C48.194,44.214 48.636,44.299 49.103,44.299 L73.563,44.299 L73.563,37.678 L52.393,37.678 Z M97.383,14.166 L97.383,37.68 L88.938,37.68 C88.788,37.68 88.472,37.656 87.99,37.612 C87.519,37.57 86.962,37.459 86.332,37.284 C85.707,37.111 85.036,36.84 84.336,36.477 C83.664,36.129 83.036,35.64 82.467,35.023 C81.901,34.409 81.425,33.625 81.052,32.695 C80.68,31.769 80.491,30.604 80.491,29.233 L80.491,14.166 L73.87,14.166 L73.87,29.232 C73.87,30.972 74.082,32.578 74.5,34.007 C74.918,35.436 75.503,36.727 76.24,37.843 C76.977,38.958 77.848,39.936 78.832,40.751 C79.806,41.559 80.863,42.234 81.976,42.759 C83.082,43.281 84.243,43.673 85.426,43.923 C86.603,44.173 87.785,44.299 88.938,44.299 L100.674,44.299 C101.127,44.299 101.562,44.214 101.967,44.045 C102.369,43.877 102.726,43.643 103.029,43.349 C103.337,43.049 103.579,42.691 103.75,42.281 C103.918,41.875 104.004,41.434 104.004,40.969 L104.004,14.166 L97.383,14.166 Z M203.068,21.405 C202.434,19.846 201.539,18.487 200.409,17.365 C199.279,16.242 197.925,15.352 196.384,14.719 C194.842,14.085 193.145,13.765 191.339,13.765 L184.289,13.765 C182.482,13.765 180.781,14.085 179.234,14.718 C177.686,15.352 176.328,16.242 175.199,17.365 C174.068,18.487 173.17,19.846 172.529,21.403 C171.889,22.958 171.564,24.669 171.564,26.488 L171.564,31.976 C171.564,33.808 171.889,35.523 172.53,37.073 C173.171,38.623 174.068,39.981 175.197,41.108 C176.327,42.239 177.687,43.13 179.237,43.757 C180.785,44.383 182.484,44.7 184.289,44.7 L191.339,44.7 C193.146,44.7 194.842,44.382 196.382,43.757 C197.925,43.129 199.28,42.238 200.41,41.108 C201.539,39.98 202.434,38.622 203.068,37.07 C203.701,35.523 204.022,33.809 204.022,31.976 L204.022,26.488 C204.022,24.667 203.701,22.957 203.068,21.405 Z M197.401,26.489 L197.401,31.977 C197.401,32.912 197.252,33.765 196.96,34.513 C196.671,35.251 196.255,35.889 195.728,36.411 C195.197,36.935 194.554,37.348 193.814,37.637 C193.066,37.93 192.22,38.079 191.298,38.079 L184.289,38.079 C183.367,38.079 182.521,37.93 181.773,37.637 C181.034,37.348 180.39,36.935 179.859,36.411 C179.331,35.889 178.917,35.25 178.628,34.513 C178.335,33.764 178.186,32.911 178.186,31.977 L178.186,26.489 C178.186,25.555 178.335,24.701 178.628,23.953 C178.918,23.215 179.332,22.576 179.858,22.055 C180.389,21.531 181.034,21.119 181.773,20.829 C182.521,20.536 183.367,20.387 184.289,20.387 L191.339,20.387 C192.246,20.387 193.086,20.536 193.835,20.828 C194.575,21.119 195.214,21.531 195.736,22.052 C196.258,22.574 196.669,23.213 196.959,23.952 C197.252,24.7 197.401,25.554 197.401,26.489 Z M229.256,34.757 C229.409,34.732 229.564,34.703 229.72,34.672 C230.498,34.516 231.278,34.259 232.039,33.911 C232.8,33.563 233.537,33.113 234.229,32.575 C234.936,32.028 235.568,31.36 236.107,30.59 C236.648,29.819 237.082,28.921 237.396,27.922 C237.71,26.923 237.869,25.78 237.869,24.526 L237.868,21.202 C237.868,20.497 237.747,19.734 237.508,18.936 C237.262,18.12 236.858,17.35 236.304,16.648 C235.742,15.938 235.009,15.343 234.124,14.878 C233.225,14.406 232.124,14.167 230.852,14.167 L211.085,14.167 C210.62,14.167 210.178,14.252 209.771,14.421 C209.363,14.591 209.005,14.833 208.704,15.141 C208.409,15.444 208.175,15.802 208.008,16.205 C207.839,16.611 207.754,17.046 207.754,17.497 L207.754,44.299 L214.375,44.299 L214.375,20.787 L230.852,20.787 C230.936,20.787 231.028,20.792 231.126,20.802 L231.204,20.875 C231.205,20.876 231.246,20.967 231.246,21.241 L231.246,24.526 C231.246,25.112 231.155,25.632 230.977,26.073 C230.803,26.504 230.553,26.876 230.233,27.178 C229.908,27.489 229.51,27.74 229.051,27.927 C228.581,28.119 228.05,28.24 227.528,28.285 L215.044,28.285 L215.044,34.906 L219.233,34.906 L230.088,44.299 L240.304,44.299 L229.256,34.757 Z" fill="#000000"></path>
		<path d="M235.905,311.221 L21.034,311.221 C15.675,311.221 11.315,307.507 11.315,302.941 L11.315,57.116 C11.315,52.561 15.675,48.856 21.034,48.856 L235.905,48.856 C240.809,48.856 243.978,52.098 243.978,57.116 L243.978,302.941 C243.978,307.971 240.809,311.221 235.905,311.221 L235.905,311.221 Z M21.034,50.977 C16.845,50.977 13.437,53.731 13.437,57.116 L13.437,302.941 C13.437,306.337 16.845,309.099 21.034,309.099 L235.905,309.099 C239.631,309.099 241.856,306.797 241.856,302.941 L241.856,57.116 C241.856,53.272 239.631,50.977 235.905,50.977 L21.034,50.977 L21.034,50.977 Z" fill="#000000"></path>
	</g>
</svg>
